public/img/Wetopia_LogoBK.svg

<?xml version="1.0" encoding="UTF-8"?>
<svg width="475px" height="58px" viewBox="0 0 475 58" version="1.1" xmlns="http://www.w3.org/2000/svg" xmlns:xlink="http://www.w3.org/1999/xlink">
    <!-- Generator: Sketch 42 (36781) - http://www.bohemiancoding.com/sketch -->
    <title>Wetopia_Logo</title>
    <desc>Created with Sketch.</desc>
    <defs></defs>
    <g id="Page-1" stroke="none" stroke-width="1" fill="none" fill-rule="evenodd">
        <g id="Wetopia_Logo" fill="#4A4A4A">
            <g id="Group-3" transform="translate(0.000000, 0.133714)">
                <path d="M62.2293333,6.49582857 L51.616,53.9701143 C51.5404444,54.1959714 51.4693333,54.4971143 51.3937778,54.6476857 L51.3937778,54.7229714 C51.3137778,54.9399714 51.1626667,55.0949714 51.0915556,55.3208286 L51.016,55.3916857 C50.9404444,55.6219714 50.7893333,55.7681143 50.6382222,55.9186857 L50.5626667,55.9984 C50.4115556,56.1445429 50.2648889,56.2906857 50.0337778,56.4456857 C50.0337778,56.5209714 50.0337778,56.5209714 49.9626667,56.5209714 C49.8115556,56.6671143 49.6604444,56.7468286 49.4337778,56.8974 L49.3582222,56.8974 L49.3582222,56.9726857 L48.7537778,57.1941143 L48.6826667,57.1941143 L48.0026667,57.4244 L47.9315556,57.4244 C47.7048889,57.4244 47.4782222,57.4952571 47.2515556,57.4952571 L47.176,57.4952571 C47.0248889,57.4952571 46.8737778,57.4952571 46.7271111,57.4244 L46.6515556,57.4244 C46.576,57.4244 46.4248889,57.4244 46.2737778,57.3446857 L46.1982222,57.3446857 L46.0471111,57.3446857 C45.976,57.2738286 45.896,57.2738286 45.8204444,57.2738286 C45.7493333,57.2738286 45.6693333,57.1941143 45.5937778,57.1941143 C45.5937778,57.1232571 45.5226667,57.1232571 45.4471111,57.1232571 L45.216,56.9726857 C45.1448889,56.9726857 45.0693333,56.9726857 45.0693333,56.8974 C44.9937778,56.8974 44.9182222,56.8176857 44.8426667,56.8176857 C44.7671111,56.7468286 44.696,56.7468286 44.696,56.6671143 C44.616,56.6671143 44.5404444,56.5962571 44.4648889,56.5209714 C44.3937778,56.5209714 44.3937778,56.4456857 44.3182222,56.4456857 L44.1671111,56.2906857 C44.0915556,56.2198286 44.016,56.1445429 43.9404444,56.1445429 C43.9404444,56.0736857 43.8648889,55.9984 43.8648889,55.9186857 C43.7893333,55.9186857 43.7137778,55.8478286 43.7137778,55.7681143 C43.6382222,55.6928286 43.5626667,55.6928286 43.5626667,55.6219714 L43.4115556,55.3916857 C43.4115556,55.3208286 43.336,55.2455429 43.2648889,55.1746857 C43.2648889,55.1746857 43.2648889,55.0949714 43.1893333,55.0949714 L31.2204444,32.7484 L19.9271111,55.0196857 C19.8515556,55.0196857 19.8515556,55.0196857 19.8515556,55.0949714 L19.6293333,55.4714 C19.5537778,55.5466857 19.5537778,55.5466857 19.5537778,55.6219714 C19.4026667,55.7681143 19.3271111,55.9186857 19.176,55.9984 C19.176,56.0736857 19.1004444,56.0736857 19.1004444,56.0736857 C19.0293333,56.2198286 18.8737778,56.2906857 18.7271111,56.4456857 C18.7271111,56.4456857 18.6515556,56.4456857 18.6515556,56.5209714 L18.1982222,56.8176857 L17.6737778,57.1232571 L17.5937778,57.1232571 C17.4426667,57.1941143 17.296,57.2738286 17.1448889,57.2738286 C17.1448889,57.2738286 17.0693333,57.2738286 16.9893333,57.3446857 L16.9226667,57.3446857 C16.8426667,57.3446857 16.6915556,57.4244 16.616,57.4244 L16.3893333,57.4244 C16.2382222,57.4952571 16.016,57.4952571 15.8648889,57.4952571 C15.6382222,57.4952571 15.416,57.4244 15.1893333,57.4244 L15.0382222,57.4244 C14.8071111,57.3446857 14.6604444,57.2738286 14.4337778,57.2738286 C14.4337778,57.1941143 14.3582222,57.1941143 14.3582222,57.1941143 L13.8337778,56.9726857 L13.7537778,56.9726857 C13.6826667,56.8974 13.6826667,56.8974 13.6071111,56.8974 C13.4515556,56.7468286 13.2293333,56.6671143 13.0782222,56.5209714 C12.856,56.3704 12.7048889,56.2198286 12.5537778,56.0736857 C12.5537778,55.9984 12.4737778,55.9984 12.4737778,55.9984 C12.3315556,55.7681143 12.176,55.6219714 12.1004444,55.4714 C12.0248889,55.3916857 12.0248889,55.3916857 12.0248889,55.3208286 C11.8737778,55.1746857 11.7982222,54.9399714 11.7226667,54.7229714 L11.6515556,54.7229714 C11.5715556,54.4971143 11.496,54.2712571 11.4204444,54.0409714 L11.4204444,53.9701143 L0.131555556,6.57111429 C-0.468444444,4.17082857 1.03822222,1.69525714 3.44266667,1.0974 C5.93155556,0.5704 8.336,2.06725714 8.94044444,4.47197143 L17.4426667,39.9448286 L27.0782222,20.8975429 C27.9093333,19.3918286 29.4115556,18.4972571 31.1448889,18.4175429 C32.7982222,18.4175429 34.3804444,19.3918286 35.1315556,20.8178286 L45.4471111,40.0156857 L53.3493333,4.54725714 C53.8737778,2.06725714 56.3626667,0.5704 58.7715556,1.0974 C61.2515556,1.6244 62.7582222,4.09554286 62.2293333,6.49582857" id="Fill-1"></path>
            </g>
            <path d="M100.616889,33.6336429 L100.616889,48.4826429 L122.141333,48.4826429 C124.625778,48.4826429 126.656889,50.5065 126.656889,52.9776429 C126.656889,55.4532143 124.625778,57.4062143 122.141333,57.4062143 L96.0968889,57.4062143 C93.6124444,57.4062143 91.6568889,55.4532143 91.6568889,52.9776429 L91.6568889,4.98078571 C91.6568889,2.50521429 93.6124444,0.481357143 96.0968889,0.481357143 L122.141333,0.481357143 C124.625778,0.481357143 126.656889,2.50521429 126.656889,4.98078571 C126.656889,7.45635714 124.625778,9.48021429 122.141333,9.48021429 L100.616889,9.48021429 L100.616889,24.7012143 L122.141333,24.7012143 C124.625778,24.7012143 126.656889,26.6542143 126.656889,29.2050714 C126.656889,31.6806429 124.625778,33.6336429 122.141333,33.6336429 L100.616889,33.6336429 Z" id="Fill-4"></path>
            <path d="M196.203111,5.13312857 C196.203111,7.67955714 194.167556,9.69898571 191.683111,9.69898571 L178.740889,9.69898571 L178.740889,52.9794143 C178.740889,55.5258429 176.705333,57.5585571 174.225333,57.5585571 C171.665333,57.5585571 169.634222,55.5258429 169.634222,52.9794143 L169.634222,9.69898571 L156.763111,9.69898571 C154.278667,9.69898571 152.243111,7.67955714 152.243111,5.13312857 C152.243111,2.6487 154.278667,0.624842857 156.763111,0.624842857 L191.683111,0.624842857 C194.167556,0.624842857 196.203111,2.6487 196.203111,5.13312857" id="Fill-6"></path>
            <path d="M252.654667,9.47977143 C241.890222,9.47977143 233.156889,18.1819143 233.156889,28.8282 C233.156889,39.5586286 241.890222,48.2563429 252.654667,48.2563429 C263.339111,48.2563429 272.072444,39.5586286 272.072444,28.8282 C272.072444,18.1819143 263.339111,9.47977143 252.654667,9.47977143 M252.654667,57.3304857 C236.841333,57.3304857 224.045778,44.5762 224.045778,28.8282 C224.045778,13.1599143 236.841333,0.410057143 252.654667,0.410057143 C268.388,0.410057143 281.174667,13.1599143 281.174667,28.9079143 C281.174667,44.5762 268.388,57.3304857 252.654667,57.3304857" id="Fill-8"></path>
            <path d="M339.510222,17.5800714 C339.510222,13.2267857 335.901333,9.24992857 331.910222,9.24992857 L319.416889,9.24992857 L319.416889,25.0776429 L331.310222,25.0776429 C335.674667,25.0776429 339.510222,21.5569286 339.510222,17.5800714 M348.470222,17.5800714 C348.470222,26.4239286 340.643556,34.0056429 331.310222,34.0056429 L319.416889,34.0056429 L319.416889,52.8270714 C319.416889,55.3115 317.461333,57.2556429 314.976889,57.2556429 C312.488,57.2556429 310.532444,55.3115 310.532444,52.8270714 L310.532444,5.20221429 C310.532444,2.88164286 312.412444,0.928642857 314.745778,0.7825 L314.745778,0.330785714 L331.910222,0.330785714 C340.865778,0.330785714 348.470222,8.20478571 348.470222,17.5800714" id="Fill-10"></path>
            <path d="M383.088889,57.3291571 C380.604444,57.3291571 378.573333,55.3097286 378.573333,52.7500143 L378.573333,4.98344286 C378.573333,2.42372857 380.604444,0.408728571 383.088889,0.408728571 C385.648889,0.408728571 387.68,2.42372857 387.68,4.98344286 L387.68,52.7500143 C387.68,55.3097286 385.648889,57.3291571 383.088889,57.3291571" id="Fill-12"></path>
            <path d="M455.12,34.5286571 L445.937778,16.2298 L437.431111,34.5286571 L455.12,34.5286571 Z M471.528889,57.1763714 C469.346667,58.3056571 466.635556,57.4066571 465.506667,55.2278 L459.64,43.5275143 L459.56,43.5275143 L433.817778,43.5275143 C433.595556,43.5275143 433.444444,43.5275143 433.288889,43.4566571 L427.871111,55.0772286 C427.12,56.7290857 425.466667,57.7033714 423.808889,57.7033714 C423.128889,57.7033714 422.528889,57.5572286 421.928889,57.2560857 C419.671111,56.2109429 418.693333,53.5848 419.742222,51.3306571 L441.72,3.99808571 C442.475556,2.42594286 443.982222,1.45165714 445.711111,1.3808 L445.786667,1.3808 C447.52,1.3808 449.022222,2.35508571 449.848889,3.85194286 L473.56,51.1800857 C474.688889,53.4298 473.786667,56.1312286 471.528889,57.1763714 L471.528889,57.1763714 Z" id="Fill-14"></path>
        </g>
    </g>
</svg>

<svg width="475" height="58" viewBox="0 0 475 58" xmlns="http://www.w3.org/2000/svg"><title>Wetopia_Logo</title><g fill="#4A4A4A" fill-rule="evenodd"><path d="M62.23 6.63L51.615 54.104c-.076.226-.147.527-.222.677v.076c-.08.217-.231.372-.302.598l-.076.07c-.076.23-.227.377-.378.527l-.075.08c-.151.146-.298.292-.53.447 0 .076 0 .076-.07.076-.151.146-.303.226-.53.376h-.075v.075l-.604.222h-.071l-.68.23h-.071c-.227 0-.454.071-.68.071h-.076c-.151 0-.302 0-.449-.07h-.075c-.076 0-.227 0-.378-.08H46.048c-.072-.071-.152-.071-.228-.071-.07 0-.15-.08-.226-.08 0-.071-.071-.071-.147-.071l-.231-.15c-.071 0-.147 0-.147-.076-.075 0-.15-.08-.226-.08-.076-.07-.147-.07-.147-.15-.08 0-.156-.071-.231-.146-.071 0-.071-.076-.147-.076l-.15-.155c-.076-.07-.152-.146-.228-.146 0-.07-.075-.146-.075-.226a.159.159 0 0 1-.151-.15c-.076-.075-.151-.075-.151-.146l-.151-.23c0-.071-.076-.147-.147-.218 0 0 0-.08-.076-.08L31.22 32.883 19.927 55.153c-.075 0-.075 0-.075.076l-.223.376c-.075.075-.075.075-.075.15-.151.147-.227.297-.378.377 0 .075-.076.075-.076.075-.07.147-.226.217-.373.372 0 0-.075 0-.075.076l-.454.296-.524.306h-.08c-.151.07-.298.15-.45.15 0 0-.075 0-.155.071h-.066c-.08 0-.231.08-.307.08h-.227c-.15.071-.373.071-.524.071-.227 0-.449-.07-.676-.07h-.15c-.232-.08-.379-.151-.605-.151 0-.08-.076-.08-.076-.08l-.524-.222h-.08c-.071-.075-.071-.075-.147-.075-.155-.15-.378-.23-.529-.376-.222-.15-.373-.301-.524-.448 0-.075-.08-.075-.08-.075-.142-.23-.298-.376-.374-.527-.075-.08-.075-.08-.075-.15-.151-.147-.227-.381-.302-.598h-.071c-.08-.226-.156-.452-.232-.682v-.071L.132 6.704c-.6-2.4.906-4.875 3.31-5.473 2.49-.527 4.894.97 5.498 3.375l8.503 35.473 9.635-19.048c.831-1.505 2.334-2.4 4.067-2.48 1.653 0 3.235.975 3.987 2.4L45.447 40.15 53.35 4.681c.525-2.48 3.014-3.977 5.423-3.45 2.48.527 3.986 2.998 3.457 5.399M100.617 33.634v14.849h21.524c2.485 0 4.516 2.024 4.516 4.495 0 2.475-2.031 4.428-4.516 4.428H96.097c-2.485 0-4.44-1.953-4.44-4.428V4.98c0-2.476 1.955-4.5 4.44-4.5h26.044c2.485 0 4.516 2.024 4.516 4.5 0 2.475-2.031 4.5-4.516 4.5h-21.524V24.7h21.524c2.485 0 4.516 1.953 4.516 4.504 0 2.476-2.031 4.429-4.516 4.429h-21.524zM196.203 5.133c0 2.547-2.035 4.566-4.52 4.566h-12.942v43.28c0 2.547-2.036 4.58-4.516 4.58a4.559 4.559 0 0 1-4.59-4.58V9.7h-12.872c-2.484 0-4.52-2.02-4.52-4.566 0-2.484 2.036-4.508 4.52-4.508h34.92c2.485 0 4.52 2.024 4.52 4.508M252.655 9.48c-10.765 0-19.498 8.702-19.498 19.348 0 10.73 8.733 19.428 19.498 19.428 10.684 0 19.417-8.697 19.417-19.428 0-10.646-8.733-19.348-19.417-19.348m0 47.85c-15.814 0-28.61-12.754-28.61-28.502 0-15.668 12.796-28.418 28.61-28.418 15.733 0 28.52 12.75 28.52 28.498 0 15.668-12.787 28.422-28.52 28.422M339.51 17.58c0-4.353-3.609-8.33-7.6-8.33h-12.493v15.828h11.893c4.365 0 8.2-3.521 8.2-7.498m8.96 0c0 8.844-7.826 16.426-17.16 16.426h-11.893v18.821c0 2.485-1.956 4.429-4.44 4.429-2.489 0-4.445-1.944-4.445-4.429V5.202c0-2.32 1.88-4.273 4.214-4.42V.331h17.164c8.956 0 16.56 7.874 16.56 17.25M383.089 57.33c-2.485 0-4.516-2.02-4.516-4.58V4.983c0-2.56 2.031-4.574 4.516-4.574 2.56 0 4.591 2.015 4.591 4.574V52.75c0 2.56-2.031 4.58-4.591 4.58M455.12 34.529l-9.182-18.3-8.507 18.3h17.689zm16.409 22.647c-2.182 1.13-4.893.23-6.022-1.948l-5.867-11.7h-25.822c-.222 0-.374 0-.53-.071l-5.417 11.62a4.5 4.5 0 0 1-4.062 2.626c-.68 0-1.28-.146-1.88-.447-2.258-1.045-3.236-3.671-2.187-5.925L441.72 3.998c.756-1.572 2.262-2.546 3.991-2.617h.076c1.733 0 3.235.974 4.062 2.47l23.711 47.33c1.129 2.249.227 4.95-2.031 5.995z"/></g></svg>
